svg/design/ease_in_control_point_fill.svg

<svg xmlns="http://www.w3.org/2000/svg" width="24" height="24" viewBox="0 0 24 24"><g fill="none"><path d="M24,0 L24,24 L0,24 L0,0 L24,0 Z M12.5935,23.2578 L12.5819,23.2595 L12.5109,23.295 L12.4919,23.2987 L12.4767,23.295 L12.4057,23.2595 C12.3958,23.2564 12.387,23.259 12.3821,23.2649 L12.378,23.2758 L12.3609,23.7031 L12.3659,23.7235 L12.3769,23.7357 L12.4805,23.8097 L12.4953,23.8136 L12.5071,23.8097 L12.6107,23.7357 L12.6233,23.7197 L12.6267,23.7031 L12.6096,23.2758 C12.6076,23.2657 12.601,23.2593 12.5935,23.2578 Z M12.8584,23.1453 L12.8445,23.1473 L12.6598,23.2397 L12.6499,23.2499 L12.6472,23.2611 L12.6651,23.6906 L12.6699,23.7034 L12.6784,23.7105 L12.8793,23.8032 C12.8914,23.8069 12.9022,23.803 12.9078,23.7952 L12.9118,23.7812 L12.8777,23.1665 C12.8753,23.1546 12.8674,23.147 12.8584,23.1453 Z M12.143,23.1473 C12.1332,23.1424 12.1222,23.1453 12.1156,23.1526 L12.1099,23.1665 L12.0758,23.7812 C12.0751,23.7927 12.0828,23.8019 12.0926,23.8046 L12.1083,23.8032 L12.3092,23.7105 L12.3186,23.7024 L12.3225,23.6906 L12.3404,23.2611 L12.3372,23.2485 L12.3278,23.2397 L12.143,23.1473 Z"/><path fill="#09244B" d="M19,17 C20.6569,17 22,18.3431 22,20 C22,21.6568 20.6569,23 19,23 C17.75911,23 16.6941172,22.246593 16.2376532,21.1722389 L16.1707,21 L15,21 C14.4477,21 14,20.5523 14,20 C14,19.48715 14.386027,19.0644908 14.8833761,19.0067275 L15,19 L16.1707,19 C16.5825,17.8348 17.6938,17 19,17 Z M19.1056,3.55276 C19.3526,3.05878 19.9532,2.85856 20.4472,3.10555 C20.9412,3.35254 21.1414,3.95321 20.8944,4.44719 L20.5200609,5.17848791 L20.5200609,5.17848791 L20.0436513,6.06802584 L20.0436513,6.06802584 L19.632485,6.80701129 L19.632485,6.80701129 L19.2776,7.42613 L19.2776,7.42613 L18.8845692,8.0931129 L18.8845692,8.0931129 L18.6021209,8.56091632 L18.6021209,8.56091632 L18.1489537,9.29217907 L18.1489537,9.29217907 L17.8278479,9.79637996 L17.8278479,9.79637996 L17.4920818,10.3115246 L17.4920818,10.3115246 L17.142114,10.8355472 L17.142114,10.8355472 L16.7784033,11.3663819 L16.7784033,11.3663819 L16.4014083,11.9019628 L16.4014083,11.9019628 L16.0115876,12.4402241 L16.0115876,12.4402241 L15.6094,12.9791 L15.6094,12.9791 C14.1128,14.9534 12.349,16.9349 10.417,18.4312 C8.4939,19.9206 6.31196,21 4,21 C3.44772,21 3,20.5523 3,20 C3,19.4477 3.44772,19 4,19 C5.68804,19 7.4436,18.2044 9.19238,16.85 C10.9322,15.5025 12.5747,13.6716 14.0156,11.7709 L14.2150316,11.5056783 L14.2150316,11.5056783 L14.604761,10.9750152 L14.604761,10.9750152 L14.9819046,10.4458601 L14.9819046,10.4458601 L15.345973,9.92037408 L15.345973,9.92037408 L15.696477,9.40071838 L15.696477,9.40071838 L16.0329273,8.88905412 L16.0329273,8.88905412 L16.5101818,8.14126919 L16.5101818,8.14126919 L16.9530635,7.42362146 L16.9530635,7.42362146 L17.4872497,6.52624463 L17.4872497,6.52624463 L17.8435067,5.90728215 L17.8435067,5.90728215 L18.2561998,5.16795973 L18.2561998,5.16795973 L18.666411,4.40627109 L18.666411,4.40627109 L19.1056,3.55276 L19.1056,3.55276 Z M12,19 C12.5523,19 13,19.4477 13,20 C13,20.51285 12.613973,20.9355092 12.1166239,20.9932725 L12,21 L11,21 C10.4477,21 10,20.5523 10,20 C10,19.48715 10.386027,19.0644908 10.8833761,19.0067275 L11,19 L12,19 Z"/></g></svg>

<svg xmlns="http://www.w3.org/2000/svg" width="24" height="24"><g fill="none"><path d="M24 0v24H0V0zM12.594 23.258l-.012.002-.071.035-.02.004-.014-.004-.071-.036c-.01-.003-.019 0-.024.006l-.004.01-.017.428.005.02.01.013.104.074.015.004.012-.004.104-.074.012-.016.004-.017-.017-.427c-.002-.01-.009-.017-.016-.018m.264-.113-.014.002-.184.093-.01.01-.003.011.018.43.005.012.008.008.201.092c.012.004.023 0 .029-.008l.004-.014-.034-.614c-.003-.012-.01-.02-.02-.022m-.715.002a.023.023 0 0 0-.027.006l-.006.014-.034.614c0 .012.007.02.017.024l.015-.002.201-.093.01-.008.003-.011.018-.43-.003-.012-.01-.01z"/><path fill="#09244B" d="M19 17a3 3 0 1 1-2.762 4.172L16.17 21H15a1 1 0 0 1-.117-1.993L15 19h1.17A3.001 3.001 0 0 1 19 17m.106-13.447a1 1 0 1 1 1.788.894l-.374.731-.476.89-.412.739-.354.62-.393.666-.283.468-.453.731-.321.504-.336.516-.35.524-.364.53-.377.536-.39.538-.402.54c-1.496 1.973-3.26 3.955-5.192 5.451C8.494 19.921 6.312 21 4 21a1 1 0 1 1 0-2c1.688 0 3.444-.796 5.192-2.15 1.74-1.348 3.383-3.178 4.824-5.08l.199-.264.39-.531.377-.53.364-.525.35-.52.337-.51.477-.749.443-.717.534-.898.357-.619.412-.739.41-.762zM12 19a1 1 0 0 1 .117 1.993L12 21h-1a1 1 0 0 1-.117-1.993L11 19z"/></g></svg>
